svgs/duotone/clouds.svg

<svg xmlns="http://www.w3.org/2000/svg" viewBox="0 0 640 512"><!-- Font Awesome Pro 6.0.0-alpha2 by @fontawesome - https://fontawesome.com License - https://fontawesome.com/license (Commercial License) --><defs><style>.fa-secondary{opacity:.4}</style></defs><path d="M304 160C344.75 160 382.625 177.25 409.375 206.5C419.25 200.875 429.875 197.125 441 194.75C445.25 183.875 448 172.375 448 160C448 107 405 64 352 64C337.875 64 324.625 67.25 312.5 72.75C296.625 30.25 256 0 208 0C151.625 0 105.25 41.875 97.625 96.25C97.125 96.25 96.625 96 96 96C43 96 0 139 0 192S43 288 96 288H161.625C169.75 216.25 230.125 160 304 160Z" class="fa-secondary"/><path d="M640 416C640 469 597 512 544 512H224C171 512 128 469 128 416C128 373.5 155.75 337.75 194.125 325.25C192.75 318.25 192 311.25 192 304C192 242.125 242.125 192 304 192C347.25 192 384.375 216.875 403 252.75C417.75 235.25 439.375 224 464 224C508.25 224 544 259.75 544 304C544 309.625 543.5 315 542.375 320.25C542.875 320.25 543.375 320 544 320C597 320 640 363 640 416Z" class="fa-primary"/></svg>

<svg xmlns="http://www.w3.org/2000/svg" viewBox="0 0 640 512"><!-- Font Awesome Pro 5.15.1 by @fontawesome - https://fontawesome.com License - https://fontawesome.com/license (Commercial License) --><defs><style>.fa-secondary{opacity:.4}</style></defs><path d="M161.6 288H96a96 96 0 0 1 0-192c.6 0 1.1.2 1.6.2C105.3 41.9 151.6 0 208 0a111.61 111.61 0 0 1 104.5 72.7A95.07 95.07 0 0 1 352 64a96 96 0 0 1 96 96 93 93 0 0 1-7 34.7 110.5 110.5 0 0 0-31.6 11.8A142.54 142.54 0 0 0 304 160c-73.9 0-134.3 56.2-142.4 128z" class="fa-secondary"/><path d="M640 416a96 96 0 0 1-96 96H224a96 96 0 0 1-96-96c0-42.5 27.8-78.2 66.1-90.8A113.72 113.72 0 0 1 192 304a111.94 111.94 0 0 1 112-112c43.2 0 80.4 24.9 99 60.8 14.7-17.5 36.4-28.8 61-28.8a80 80 0 0 1 80 80 78.09 78.09 0 0 1-1.6 16.2c.5 0 1-.2 1.6-.2a96 96 0 0 1 96 96z" class="fa-primary"/></svg>
